X: 1
T:Moling
M:6/8
L:1/8
C:Maire Breathnach
S:Maire Breathnach
R:Jig
D:Angels' Candles
K:A
G|AEC DB,G,|A,EA cag|fdB ceA|BFA GFE|AEC DB,G,|\
A,EA cag|fdB ceA|BFG A2::B|caf ecA|FBc d2c|BGE gf^d|\
fec edB|caf ecA|FBc d2c|BGE gfe|dBG A2:|
